X:1
T:The Little Mohee
T:The Little Mohee
T:Southern Mountain Ballad
%%score [ 1 2 3 4 ]
L:1/8
M:3/4
K:Eb
V:1 treble-8 nm="Soprano"
V:2 treble-8 nm="Alto"
V:3 bass nm="Tenor"
V:4 bass nm="Bass"
V:1
 (e e) | e2 d2 c2 | d2 d4- | d4 (d d) | d2 d2 d2 | e6- | e4 (e e) | e2 e3 e | d2 d4- | d4 (B c) | %10
w: 1.As _|I was a-|walk- ing|_ for _|pleas- ure one|day,|_ I _|craved rec- re-|a- tion|_ as the|
w: 2.She _|came and sat|by me,|_ And, _|tak- ing my|hand,|_ Said, "You|look like a|strang- er,|_ Not _|
w: 3.Said _|I, "No, fair|maid- en,|_ That _|nev- er can|be,|_ For _|I have a|true love|_ In _|
w: 4.She said,|"When you re-|turn, Sir,|_ To the|land that you|know,|_ Re- *|mem- ber the|maid- en|_ where the|
w: 5.And _|now I am|land- ed|_ on my|own na- tive|shore,|_ With _|friends and re-|la- tions|_ all a-|
w: 6.And the|girl I had|trust- ed|_ proved _|un- true to|me,|_ So I|said, "I'll turn|back- wards|_ a- *|
 d2 d2 d2 | e6- | e4 (e e) | e2 d2 _d2 | c2 e4- | e4 (e e) | c2 d2 d2 | e6- | e4 (e e) | e2 d2 c2 | %20
w: day passed a-|way.|_ I _|sat me down|mus- ing|_ a- *|lone in the|grass,|_ When _|who should come|
w: one of our|band.|_ But _|if you will|rise, Sir,|_ And _|come _ with|me,|_ I'll _|teach you the|
w: my own coun-|try;|_ And _|I'll not for-|sake her|_ For I|know she loves|me,|_ And _|is just as|
w: co- co- nuts|grow."|_ And the|last time I|saw her,|_ She was|out on the|sand;|_ As my|ship sailed out|
w: round me once|more;|_ But of|all who sur-|round me,|_ Not _|one can I|see|_ who _|real- ly com-|
w: cross the blue|sea;|_ I'll _|set my course|out- ward,|_ And a-|way I will|flee,|_ Spend the|rest of my|
 d2 d4- | d4 (B c) | d2 d2 d2 | e6- | e4 |] %25
w: by me|_ but a|young In- dian|lass.|_|
w: lang- uage|_ of the|lit- tle Mo-|hee."|_|
w: faith- ful|_ as the|lit- tle Mo-|hee."|_|
w: past her,|_ She _|waved me the|hand.|_|
w: pares with|_ my _|lit- tle Mo-|hee.|_|
w: days with|_ my _|lit- tle Mo-|hee."|_|
V:2
 (E E) | E2 G2 B2 | B2 F4- | F4 (D D) | F2 G2 D2 | E6- | E4 (E E) | E2 B3 c | B2 F4- | F4 (D E) | %10
w: 1.As _|I was a-|walk- ing|_ for _|pleas- ure one|day,|_ I _|craved rec- re-|a- tion|_ as the|
w: 2.She _|came and sat|by me,|_ And, _|tak- ing my|hand,|_ Said, "You|look like a|strang- er,|_ Not _|
w: 3.Said _|I, "No, fair|maid- en,|_ That _|nev- er can|be,|_ For _|I have a|true love|_ In _|
w: 4.She said,|"When you re-|turn, Sir,|_ To the|land that you|know,|_ Re- *|mem- ber the|maid- en|_ where the|
w: 5.And _|now I am|land- ed|_ on my|own na- tive|shore,|_ With _|friends and re-|la- tions|_ all a-|
w: 6.And the|girl I had|trust- ed|_ proved _|un- true to|me,|_ So I|said, "I'll turn|back- wards|_ a- *|
 F2 G2 D2 | E6- | E4 (E E) | E2 G2 B2 | e2 c4- | c4 (c c) | A2 B2 c2 | B6- | B4 (E E) | E2 G2 B2 | %20
w: day passed a-|way.|_ I _|sat me down|mus- ing|_ a- *|lone in the|grass,|_ When _|who should come|
w: one of our|band.|_ But _|if you will|rise, Sir,|_ And _|come _ with|me,|_ I'll _|teach you the|
w: my own coun-|try;|_ And _|I'll not for-|sake her|_ For I|know she loves|me,|_ And _|is just as|
w: co- co- nuts|grow."|_ And the|last time I|saw her,|_ She was|out on the|sand;|_ As my|ship sailed out|
w: round me once|more;|_ But of|all who sur-|round me,|_ Not _|one can I|see|_ who _|real- ly com-|
w: cross the blue|sea;|_ I'll _|set my course|out- ward,|_ And a-|way I will|flee,|_ Spend the|rest of my|
 B2 F4- | F4 (D E) | F2 G2 D2 | E6- | E4 |] %25
w: by me|_ but a|young In- dian|lass.|_|
w: lang- uage|_ of the|lit- tle Mo-|hee."|_|
w: faith- ful|_ as the|lit- tle Mo-|hee."|_|
w: past her,|_ She _|waved me the|hand.|_|
w: pares with|_ my _|lit- tle Mo-|hee.|_|
w: days with|_ my _|lit- tle Mo-|hee."|_|
V:3
 (G, G,) | G,2 B,2 G,2 | A,2 A,4- | A,4 (A, A,) | A,2 B,2 A,2 | G,6- | G,4 (G, G,) | G,2 G,3 G, | %8
w: 1.As _|I was a-|walk- ing|_ for _|pleas- ure one|day,|_ I _|craved rec- re-|
w: 2.She _|came and sat|by me,|_ And, _|tak- ing my|hand,|_ Said, "You|look like a|
w: 3.Said _|I, "No, fair|maid- en,|_ That _|nev- er can|be,|_ For _|I have a|
w: 4.She said,|"When you re-|turn, Sir,|_ To the|land that you|know,|_ Re- *|mem- ber the|
w: 5.And _|now I am|land- ed|_ on my|own na- tive|shore,|_ With _|friends and re-|
w: 6.And the|girl I had|trust- ed|_ proved _|un- true to|me,|_ So I|said, "I'll turn|
 A,2 A,4- | A,4 (F, G,) | A,2 B,2 A,2 | G,6- | G,4 (G, G,) | G,2 B,2 G,2 | A,2 A,4- | A,4 (A, A,) | %16
w: a- tion|_ as the|day passed a-|way.|_ I _|sat me down|mus- ing|_ a- *|
w: strang- er,|_ Not _|one of our|band.|_ But _|if you will|rise, Sir,|_ And _|
w: true love|_ In _|my own coun-|try;|_ And _|I'll not for-|sake her|_ For I|
w: maid- en|_ where the|co- co- nuts|grow."|_ And the|last time I|saw her,|_ She was|
w: la- tions|_ all a-|round me once|more;|_ But of|all who sur-|round me,|_ Not _|
w: back- wards|_ a- *|cross the blue|sea;|_ I'll _|set my course|out- ward,|_ And a-|
 F,2 A,2 A,2 | G,6- | G,4 (G, G,) | G,2 B,2 G,2 | A,2 A,4- | A,4 (F, G,) | A,2 B,2 A,2 | G,6- | %24
w: lone in the|grass,|_ When _|who should come|by me|_ but a|young In- dian|lass.|
w: come _ with|me,|_ I'll _|teach you the|lang- uage|_ of the|lit- tle Mo-|hee."|
w: know she loves|me,|_ And _|is just as|faith- ful|_ as the|lit- tle Mo-|hee."|
w: out on the|sand;|_ As my|ship sailed out|past her,|_ She _|waved me the|hand.|
w: one can I|see|_ who _|real- ly com-|pares with|_ my _|lit- tle Mo-|hee.|
w: way I will|flee,|_ Spend the|rest of my|days with|_ my _|lit- tle Mo-|hee."|
 G,4 |] %25
w: _|
w: _|
w: _|
w: _|
w: _|
w: _|
V:4
 (E, E,) | E,2 E,2 E,2 | B,,2 B,,4- | B,,4 (B,, B,,) | B,,2 B,,2 B,,2 | E,6- | E,4 (E, E,) | %7
w: 1.As _|I was a-|walk- ing|_ for _|pleas- ure one|day,|_ I _|
w: 2.She _|came and sat|by me,|_ And, _|tak- ing my|hand,|_ Said, "You|
w: 3.Said _|I, "No, fair|maid- en,|_ That _|nev- er can|be,|_ For _|
w: 4.She said,|"When you re-|turn, Sir,|_ To the|land that you|know,|_ Re- *|
w: 5.And _|now I am|land- ed|_ on my|own na- tive|shore,|_ With _|
w: 6.And the|girl I had|trust- ed|_ proved _|un- true to|me,|_ So I|
 E,2 E,3 E, | B,,2 B,,4- | B,,4 (B,, B,,) | B,,2 B,,2 B,,2 | E,6- | E,4 (E, E,) | E,2 E,2 E,2 | %14
w: craved rec- re-|a- tion|_ as the|day passed a-|way.|_ I _|sat me down|
w: look like a|strang- er,|_ Not _|one of our|band.|_ But _|if you will|
w: I have a|true love|_ In _|my own coun-|try;|_ And _|I'll not for-|
w: mem- ber the|maid- en|_ where the|co- co- nuts|grow."|_ And the|last time I|
w: friends and re-|la- tions|_ all a-|round me once|more;|_ But of|all who sur-|
w: said, "I'll turn|back- wards|_ a- *|cross the blue|sea;|_ I'll _|set my course|
 A,,2 A,,4- | A,,4 (A,, A,,) | B,,2 B,,2 B,,2 | E,6- | E,4 (E, E,) | E,2 E,2 E,2 | B,,2 B,,4- | %21
w: mus- ing|_ a- *|lone in the|grass,|_ When _|who should come|by me|
w: rise, Sir,|_ And _|come _ with|me,|_ I'll _|teach you the|lang- uage|
w: sake her|_ For I|know she loves|me,|_ And _|is just as|faith- ful|
w: saw her,|_ She was|out on the|sand;|_ As my|ship sailed out|past her,|
w: round me,|_ Not _|one can I|see|_ who _|real- ly com-|pares with|
w: out- ward,|_ And a-|way I will|flee,|_ Spend the|rest of my|days with|
 B,,4 (B,, B,,) | B,,2 B,,2 B,,2 | E,6- | E,4 |] %25
w: _ but a|young In- dian|lass.|_|
w: _ of the|lit- tle Mo-|hee."|_|
w: _ as the|lit- tle Mo-|hee."|_|
w: _ She _|waved me the|hand.|_|
w: _ my _|lit- tle Mo-|hee.|_|
w: _ my _|lit- tle Mo-|hee."|_|

